X: 18056
T: Humours Of Bahrain, The
R: polka
M: 2/4
K: Gmajor
|:B/|de/d/ Bd|gd Bd|cA A/B/c/d/|ed B>c|
de/d/ Bd|gd B2|cB/c/ dF|AG G3/2:|
|:B/|dg g/f/g/a/|bg gf|eA a>g|f/e/f/g/ ad|
dg g>a|bg g2|cD FA|AG G3/2:|

